X:1121
T:How sweet the Love that meets return.
M:C
L:1/8
Q:1/4=100
Z:Jack Campin * www.campin.me.uk * 2009
K:G
  B>c| d>e dB        g2        d/e/d/c/| B2        G2     G3
    A| B<G FG        B3/c//d// c/B/A/G/|!F<A       A>B    A3
    A| d>e`dA        GF````````ED      | d//e//f3/ e>f    d3
    d|!d<B d>e       dc        AB      | c<A       c>d    cB
  G>A| BG  G3/A//B// E2        A>B     |!c<e       Ec/A/ HGHF
  G>A| B>c BG        dG        GA      |!B>c       BG    Hg2
(3dBG| E>F Gc/d//e// B>c       A2      | G4               z2|]

